X: 171
T: Stumpie
T: Wap an' Rowe
O: Trad (1734)
R: strathspey
Z: 1999 John Chambers <jc:trillian.mit.edu>
M: 4/4
L: 1/16
K: A
   d |\
"A"ce3 a4 agfe a4 | ce3 a4 {ga}"Bm"bB3 "E7"B3d |\
"A"ce3 a4 agfe a4 | ce3 "E7"B3d "A"cA3 A3 :|
|: B |\
"A"ce3 e3c "D"df3 f3d | "A"ce3 e3c "Bm"[fc]B3 "E7"B3d |\
"A"ce3 e3c "D"df3 f3d | "A"ca3 "E7"B3d "A"cA3 A3 :|

%%sep 1 1 500

